teeny/solid/python.svg

<svg width="15" height="15" viewBox="0 0 15 15" fill="none" xmlns="http://www.w3.org/2000/svg">
<path d="M3 12H1.5C0.671573 12 0 11.3284 0 10.5V5.5C0 4.67157 0.671573 4 1.5 4H8V3H7V2H6V3H4V1.5C4 0.671573 4.67157 0 5.5 0H9.5C10.3284 0 11 0.671573 11 1.5V6.5C11 6.77614 10.7761 7 10.5 7H4.5C3.67157 7 3 7.67157 3 8.5V12Z" fill="black"/>
<path d="M12 3V6.5C12 7.32843 11.3284 8 10.5 8H4.5C4.22386 8 4 8.22386 4 8.5V13.5C4 14.3284 4.67157 15 5.5 15H9.5C10.3284 15 11 14.3284 11 13.5V12H9V13H8V12H7V11H13.5C14.3284 11 15 10.3284 15 9.5V4.5C15 3.67157 14.3284 3 13.5 3H12Z" fill="black"/>
</svg>

<svg viewBox="0 0 15 15" xmlns="http://www.w3.org/2000/svg"><g><path d="M3 12H1.5C.67 12 0 11.32 0 10.5v-5C0 4.67.67 4 1.5 4H8V3H7V2H6v1H4V1.5C4 .67 4.67 0 5.5 0h4c.82 0 1.5.67 1.5 1.5v5c0 .27-.23.5-.5.5h-6C3.67 7 3 7.67 3 8.5V12Z"/><path d="M12 3v3.5c0 .82-.68 1.5-1.5 1.5h-6c-.28 0-.5.22-.5.5v5c0 .82.67 1.5 1.5 1.5h4c.82 0 1.5-.68 1.5-1.5V12H9v1H8v-1H7v-1h6.5c.82 0 1.5-.68 1.5-1.5v-5c0-.83-.68-1.5-1.5-1.5H12Z"/></g></svg>
